curriculum/images/exercise-icons/emoji-collector.svg

<svg width="82" height="82" viewBox="0 0 82 82" fill="none" xmlns="http://www.w3.org/2000/svg">
<path d="M1 41C1 51.6087 5.21427 61.7828 12.7157 69.2843C20.2172 76.7857 30.3913 81 41 81C51.6087 81 61.7828 76.7857 69.2843 69.2843C76.7857 61.7828 81 51.6087 81 41C81 30.3913 76.7857 20.2172 69.2843 12.7157C61.7828 5.21427 51.6087 1 41 1C30.3913 1 20.2172 5.21427 12.7157 12.7157C5.21427 20.2172 1 30.3913 1 41Z" fill="#DAEDF7" stroke="#DAEDF7"/>
<path d="M68.8211 60.34C68.8211 61.3237 68.6273 62.2977 68.2508 63.2065C67.8743 64.1153 67.3225 64.941 66.6269 65.6366C65.9313 66.3321 65.1055 66.8838 64.1967 67.2601C63.2878 67.6365 62.3137 67.8301 61.3301 67.83H20.6701C18.6836 67.83 16.7785 67.0409 15.3738 65.6362C13.9692 64.2316 13.1801 62.3264 13.1801 60.34C13.1801 58.3535 13.9692 56.4484 15.3738 55.0437C16.7785 53.6391 18.6836 52.85 20.6701 52.85H61.3301C63.3166 52.85 65.2218 53.6391 66.6266 55.0437C68.0314 56.4483 68.8208 58.3534 68.8211 60.34Z" fill="#FF6242"/>
<path d="M20.67 55.52H61.33C63.0841 55.5208 64.7823 56.1375 66.1283 57.2623C67.4744 58.3872 68.3827 59.9489 68.695 61.675C68.8952 60.5958 68.8548 59.4856 68.5768 58.4237C68.2988 57.3618 67.79 56.3743 67.0867 55.5315C66.3833 54.6888 65.5028 54.0115 64.5077 53.548C63.5127 53.0845 62.4277 52.8462 61.33 52.85H20.67C19.572 52.8453 18.4866 53.083 17.4911 53.5462C16.4956 54.0094 15.6146 54.6867 14.9111 55.5297C14.2076 56.3727 13.6989 57.3606 13.4212 58.4229C13.1436 59.4852 13.1039 60.5956 13.305 61.675C13.6173 59.9489 14.5256 58.3872 15.8716 57.2623C17.2176 56.1375 18.9158 55.5208 20.67 55.52Z" fill="#FF6242"/>
<path d="M68.8211 60.34C68.8211 61.3237 68.6273 62.2977 68.2508 63.2065C67.8743 64.1153 67.3225 64.941 66.6269 65.6366C65.9313 66.3321 65.1055 66.8838 64.1967 67.2601C63.2878 67.6365 62.3137 67.8301 61.3301 67.83H20.6701C18.6836 67.83 16.7785 67.0409 15.3738 65.6362C13.9692 64.2316 13.1801 62.3264 13.1801 60.34C13.1801 58.3535 13.9692 56.4484 15.3738 55.0437C16.7785 53.6391 18.6836 52.85 20.6701 52.85H61.3301C63.3166 52.85 65.2218 53.6391 66.6266 55.0437C68.0314 56.4483 68.8208 58.3534 68.8211 60.34Z" stroke="#45413C" stroke-linecap="round" stroke-linejoin="round"/>
<path d="M69.891 60.34C69.8907 60.9076 69.665 61.4519 69.2635 61.8532C68.8621 62.2545 68.3176 62.48 67.75 62.48H14.25C13.6824 62.48 13.1381 62.2545 12.7368 61.8532C12.3354 61.4518 12.11 60.9075 12.11 60.34C12.11 59.7724 12.3354 59.2281 12.7368 58.8267C13.1381 58.4254 13.6824 58.2 14.25 58.2H67.75C68.3176 58.2 68.8621 58.4254 69.2635 58.8267C69.665 59.228 69.8907 59.7723 69.891 60.34Z" fill="#87898C"/>
<path d="M12.109 60.34C12.1093 59.7723 12.335 59.228 12.7364 58.8267C13.1379 58.4254 13.6824 58.2 14.25 58.2H67.75C68.3177 58.2 68.8621 58.4254 69.2636 58.8267C69.6651 59.228 69.8907 59.7723 69.891 60.34H12.109Z" fill="#87898C"/>
<path d="M69.891 60.34C69.8907 60.9076 69.665 61.4519 69.2635 61.8532C68.8621 62.2545 68.3176 62.48 67.75 62.48H14.25C13.6824 62.48 13.1381 62.2545 12.7368 61.8532C12.3354 61.4518 12.11 60.9075 12.11 60.34C12.11 59.7724 12.3354 59.2281 12.7368 58.8267C13.1381 58.4254 13.6824 58.2 14.25 58.2H67.75C68.3176 58.2 68.8621 58.4254 69.2635 58.8267C69.665 59.228 69.8907 59.7723 69.891 60.34Z" stroke="#45413C" stroke-linecap="round" stroke-linejoin="round"/>
<path d="M51.7001 59.27C51.7001 60.1213 51.3619 60.9378 50.7599 61.5398C50.1579 62.1418 49.3414 62.48 48.4901 62.48H33.51C32.6587 62.48 31.8422 62.1418 31.2402 61.5398C30.6382 60.9378 30.3 60.1213 30.3 59.27V52.85H51.7001V59.27Z" fill="#00B8F0"/>
<path d="M44.4351 52.85L34.8151 62.48H33.5151C33.0934 62.4805 32.6757 62.3978 32.286 62.2367C31.8963 62.0756 31.5423 61.8391 31.2441 61.541C30.9459 61.2428 30.7095 60.8887 30.5483 60.499C30.3872 60.1093 30.3045 59.6917 30.3051 59.27V52.85H44.4351Z" fill="#4ACFFF"/>
<path d="M51.7001 59.27C51.7001 60.1213 51.3619 60.9378 50.7599 61.5398C50.1579 62.1418 49.3414 62.48 48.4901 62.48H33.51C32.6587 62.48 31.8422 62.1418 31.2402 61.5398C30.6382 60.9378 30.3 60.1213 30.3 59.27V52.85H51.7001V59.27Z" stroke="#45413C" stroke-linecap="round" stroke-linejoin="round"/>
<path d="M43.675 57.13C43.675 57.8394 43.8441 58.5198 44.1451 59.0215C44.4461 59.5231 44.8544 59.805 45.28 59.805C45.7057 59.805 46.114 59.5231 46.415 59.0215C46.716 58.5198 46.885 57.8394 46.885 57.13C46.885 56.4205 46.716 55.7401 46.415 55.2384C46.114 54.7368 45.7057 54.455 45.28 54.455C44.8544 54.455 44.4461 54.7368 44.1451 55.2384C43.8441 55.7401 43.675 56.4205 43.675 57.13Z" fill="white" stroke="#009FD9"/>
<path d="M27.09 68.9C27.09 69.4675 26.8645 70.0118 26.4632 70.4132C26.0619 70.8145 25.5176 71.04 24.95 71.04H23.88C23.3124 71.04 22.7681 70.8145 22.3668 70.4132C21.9655 70.0118 21.74 69.4675 21.74 68.9V67.83H27.09V68.9Z" fill="#45413C" stroke="#45413C" stroke-linecap="round" stroke-linejoin="round"/>
<path d="M61.33 68.9C61.33 69.181 61.2746 69.4593 61.1671 69.7189C61.0595 69.9785 60.9019 70.2144 60.7032 70.4132C60.5045 70.6119 60.2686 70.7695 60.0089 70.8771C59.7493 70.9846 59.471 71.04 59.19 71.04H58.12C57.5524 71.04 57.0081 70.8145 56.6068 70.4132C56.2054 70.0118 55.98 69.4675 55.98 68.9V67.83H61.33V68.9Z" fill="#45413C" stroke="#45413C" stroke-linecap="round" stroke-linejoin="round"/>
<path opacity="0.15" d="M19.3149 71.447C19.3149 71.8387 21.641 72.2144 25.7814 72.4914C29.9219 72.7684 35.5375 72.924 41.3929 72.924C47.2484 72.924 52.864 72.7684 57.0044 72.4914C61.1449 72.2144 63.4709 71.8387 63.4709 71.447C63.4709 71.0552 61.1449 70.6796 57.0044 70.4026C52.864 70.1256 47.2484 69.97 41.3929 69.97C35.5375 69.97 29.9219 70.1256 25.7814 70.4026C21.641 70.6796 19.3149 71.0552 19.3149 71.447Z" fill="#45413C"/>
<path d="M44.21 52.85C43.7057 52.8498 43.2176 52.6716 42.8318 52.3468C42.446 52.022 42.1873 51.5714 42.1012 51.0744C42.0152 50.5775 42.1073 50.0661 42.3613 49.6305C42.6154 49.1948 43.0151 48.8628 43.49 48.693L51.369 45.879C53.0301 45.2833 54.4671 44.1896 55.4838 42.7472C56.5004 41.3048 57.0474 39.5838 57.05 37.819V22.888C57.05 22.3205 57.2754 21.7762 57.6768 21.3748C58.0781 20.9735 58.6224 20.748 59.19 20.748C59.7575 20.748 60.3019 20.9735 60.7032 21.3748C61.1045 21.7762 61.33 22.3205 61.33 22.888V37.819C61.326 40.4665 60.5056 43.0482 58.9805 45.2122C57.4554 47.3762 55.2999 49.0171 52.808 49.911L44.93 52.725C44.6988 52.8073 44.4553 52.8495 44.21 52.85Z" fill="#FFF5EB"/>
<path d="M54.654 43.752C53.7388 44.7062 52.6142 45.4344 51.369 45.879L43.49 48.693C43.0152 48.862 42.6153 49.1932 42.3608 49.6282C42.1063 50.0632 42.0135 50.5741 42.0987 51.0708C42.1839 51.5675 42.4417 52.0183 42.8267 52.3435C43.2116 52.6688 43.699 52.8478 44.203 52.849H44.222C44.4633 52.8473 44.7026 52.8054 44.93 52.725L52.808 49.911C53.7108 49.5873 54.5742 49.1629 55.382 48.646C55.2359 47.0017 54.9929 45.3675 54.654 43.752Z" fill="#FFCC99"/>
<path d="M44.21 52.85C43.7057 52.8498 43.2176 52.6716 42.8318 52.3468C42.446 52.022 42.1873 51.5714 42.1012 51.0744C42.0152 50.5775 42.1073 50.0661 42.3613 49.6305C42.6154 49.1948 43.0151 48.8628 43.49 48.693L51.369 45.879C53.0301 45.2833 54.4671 44.1896 55.4838 42.7472C56.5004 41.3048 57.0474 39.5838 57.05 37.819V22.888C57.05 22.3205 57.2754 21.7762 57.6768 21.3748C58.0781 20.9735 58.6224 20.748 59.19 20.748C59.7575 20.748 60.3019 20.9735 60.7032 21.3748C61.1045 21.7762 61.33 22.3205 61.33 22.888V37.819C61.326 40.4665 60.5056 43.0482 58.9805 45.2122C57.4554 47.3762 55.2999 49.0171 52.808 49.911L44.93 52.725C44.6988 52.8073 44.4553 52.8495 44.21 52.85Z" stroke="#45413C" stroke-linecap="round" stroke-linejoin="round"/>
<path d="M37.6 12.5C34.055 7.051 29.078 4 26.483 5.691C23.888 7.382 24.659 13.165 28.204 18.613L37.6 12.5Z" fill="#FFF5EB" stroke="#45413C" stroke-linecap="round" stroke-linejoin="round"/>
<path d="M35.467 13.885C33.028 10.136 29.904 7.84299 28.489 8.76399C27.074 9.68499 27.903 13.47 30.342 17.219L35.467 13.885Z" fill="#FFA694" stroke="#45413C" stroke-linecap="round" stroke-linejoin="round"/>
<path d="M44.4 12.5C47.945 7.051 52.922 4 55.517 5.691C58.112 7.382 57.341 13.165 53.796 18.613L44.4 12.5Z" fill="#FFAA54" stroke="#45413C"/>
<path d="M46.533 13.885C48.972 10.136 52.096 7.84299 53.511 8.76399C54.926 9.68499 54.097 13.47 51.658 17.219L46.533 13.885Z" fill="#FFA694" stroke="#45413C" stroke-linecap="round" stroke-linejoin="round"/>
<path d="M30.3 52.849C30.3 40.439 35.09 30.379 41 30.379C46.91 30.379 51.7001 40.439 51.7001 52.849H30.3Z" fill="#FFF5EB"/>
<path d="M41 30.379C38.406 30.379 36.028 32.32 34.175 35.545C34.9991 35.8009 35.8572 35.9307 36.7201 35.93H45.59C46.3586 35.9296 47.1235 35.8253 47.864 35.62C46.006 32.351 43.614 30.379 41 30.379Z" fill="#FFCC99"/>
<path d="M30.3 52.849C30.3 40.439 35.09 30.379 41 30.379C46.91 30.379 51.7001 40.439 51.7001 52.849H30.3Z" stroke="#45413C" stroke-linecap="round" stroke-linejoin="round"/>
<path d="M54.151 20.748V23.958C54.152 25.0825 53.9311 26.1961 53.5012 27.2352C53.0713 28.2743 52.4408 29.2184 51.6456 30.0136C50.8505 30.8087 49.9064 31.4393 48.8673 31.8692C47.8282 32.2991 46.7145 32.5199 45.59 32.519H36.72C35.5958 32.5193 34.4825 32.298 33.4437 31.8678C32.405 31.4377 31.4612 30.8071 30.6663 30.0121C29.8713 29.217 29.2408 28.2732 28.8108 27.2344C28.3808 26.1956 28.1596 25.0823 28.16 23.958V20.748C28.1598 19.6238 28.381 18.5106 28.8111 17.4719C29.2412 16.4332 29.8717 15.4895 30.6666 14.6946C31.4615 13.8996 32.4053 13.2691 33.444 12.839C34.4826 12.409 35.5958 12.1877 36.72 12.188H45.59C47.8601 12.189 50.0368 13.0912 51.6421 14.6963C53.2473 16.3013 54.1497 18.478 54.151 20.748Z" fill="#FFF5EB"/>
<path d="M54.086 22.0829C53.8261 24.154 52.819 26.0588 51.2539 27.4398C49.6887 28.8208 47.6733 29.5829 45.586 29.5829H36.72C35.5958 29.5833 34.4825 29.3622 33.4438 28.9322C32.4051 28.5021 31.4613 27.8716 30.6663 27.0767C29.8714 26.2817 29.2409 25.3379 28.8108 24.2992C28.3808 23.2605 28.1596 22.1472 28.16 21.0229V23.9579C28.1596 25.0822 28.3808 26.1956 28.8108 27.2343C29.2408 28.2731 29.8713 29.217 30.6663 30.012C31.4612 30.807 32.405 31.4376 33.4437 31.8678C34.4825 32.2979 35.5958 32.5192 36.72 32.5189H45.59C46.7148 32.5209 47.8289 32.3008 48.8684 31.8713C49.9079 31.4417 50.8524 30.8112 51.6476 30.0158C52.4429 29.2205 53.0733 28.2759 53.5028 27.2364C53.9322 26.1968 54.1521 25.0827 54.15 23.9579V21.0249C54.1505 21.3786 54.1291 21.7319 54.086 22.0829Z" fill="#FFCC99"/>
<path d="M54.151 20.748V23.958C54.152 25.0825 53.9311 26.1961 53.5012 27.2352C53.0713 28.2743 52.4408 29.2184 51.6456 30.0136C50.8505 30.8087 49.9064 31.4393 48.8673 31.8692C47.8282 32.2991 46.7145 32.5199 45.59 32.519H36.72C35.5958 32.5193 34.4825 32.298 33.4437 31.8678C32.405 31.4377 31.4612 30.8071 30.6663 30.0121C29.8713 29.217 29.2408 28.2732 28.8108 27.2344C28.3808 26.1956 28.1596 25.0823 28.16 23.958V20.748C28.1598 19.6238 28.381 18.5106 28.8111 17.4719C29.2412 16.4332 29.8717 15.4895 30.6666 14.6946C31.4615 13.8996 32.4053 13.2691 33.444 12.839C34.4826 12.409 35.5958 12.1877 36.72 12.188H45.59C47.8601 12.189 50.0368 13.0912 51.6421 14.6963C53.2473 16.3013 54.1497 18.478 54.151 20.748Z" stroke="#45413C" stroke-linecap="round" stroke-linejoin="round"/>
<path d="M54.151 20.748V21.807C54.0484 21.8261 53.9436 21.8298 53.84 21.818C47.789 20.397 46.023 17.935 44.21 12.187H45.59C47.8602 12.1881 50.0371 13.0904 51.6423 14.6956C53.2476 16.3009 54.1499 18.4778 54.151 20.748Z" fill="#FFAA54" stroke="#45413C"/>
<path d="M33.51 22.888C33.51 23.3136 33.6791 23.7219 33.9801 24.0229C34.2811 24.3239 34.6893 24.493 35.115 24.493C35.5407 24.493 35.9489 24.3239 36.2499 24.0229C36.5509 23.7219 36.72 23.3136 36.72 22.888C36.72 22.4623 36.5509 22.054 36.2499 21.7531C35.9489 21.4521 35.5407 21.283 35.115 21.283C34.6893 21.283 34.2811 21.4521 33.9801 21.7531C33.6791 22.054 33.51 22.4623 33.51 22.888Z" fill="#45413C"/>
<path d="M45.28 22.888C45.28 23.3136 45.4491 23.7219 45.7501 24.0229C46.0511 24.3239 46.4594 24.493 46.885 24.493C47.3107 24.493 47.7189 24.3239 48.0199 24.0229C48.3209 23.7219 48.49 23.3136 48.49 22.888C48.49 22.4623 48.3209 22.054 48.0199 21.7531C47.7189 21.4521 47.3107 21.283 46.885 21.283C46.4594 21.283 46.0511 21.4521 45.7501 21.7531C45.4491 22.054 45.28 22.4623 45.28 22.888Z" fill="#45413C"/>
<path d="M39.934 25.828C39.8009 25.8279 39.6708 25.8673 39.5602 25.9411C39.4495 26.015 39.3633 26.1201 39.3124 26.2431C39.2615 26.366 39.2483 26.5013 39.2744 26.6318C39.3005 26.7623 39.3647 26.8821 39.459 26.976L40.525 28.042C40.651 28.1679 40.8219 28.2387 41 28.2387C41.1781 28.2387 41.349 28.1679 41.475 28.042L42.541 26.976C42.6353 26.8821 42.6995 26.7623 42.7256 26.6318C42.7517 26.5013 42.7385 26.366 42.6876 26.2431C42.6367 26.1201 42.5505 26.015 42.4398 25.9411C42.3292 25.8673 42.1991 25.8279 42.066 25.828H39.934Z" fill="#FFB0CA" stroke="#45413C" stroke-linecap="round" stroke-linejoin="round"/>
<path d="M30.3 25.03L21.74 23.96Z" fill="white"/>
<path d="M30.3 25.03L21.74 23.96" stroke="#45413C" stroke-linecap="round" stroke-linejoin="round"/>
<path d="M30.3001 28.239L22.8101 31.449Z" fill="white"/>
<path d="M30.3001 28.239L22.8101 31.449" stroke="#45413C" stroke-linecap="round" stroke-linejoin="round"/>
<path d="M51.7 25.03L60.26 23.96Z" fill="white"/>
<path d="M51.7 25.03L60.26 23.96" stroke="#45413C" stroke-linecap="round" stroke-linejoin="round"/>
<path d="M51.7 28.239L59.19 31.449Z" fill="white"/>
<path d="M51.7 28.239L59.19 31.449" stroke="#45413C" stroke-linecap="round" stroke-linejoin="round"/>
<path d="M41 28.239C41 28.6647 40.8309 29.0729 40.5299 29.3739C40.2289 29.6749 39.8207 29.844 39.395 29.844C38.9694 29.844 38.5611 29.6749 38.2601 29.3739C37.9591 29.0729 37.79 28.6647 37.79 28.239" stroke="#45413C" stroke-linecap="round" stroke-linejoin="round"/>
<path d="M41 28.239C41 28.6647 41.1691 29.0729 41.4701 29.3739C41.7711 29.6749 42.1793 29.844 42.605 29.844C43.0307 29.844 43.4389 29.6749 43.7399 29.3739C44.0409 29.0729 44.21 28.6647 44.21 28.239" stroke="#45413C" stroke-linecap="round" stroke-linejoin="round"/>
<path d="M35.65 47.499L36.72 52.849" stroke="#45413C" stroke-linecap="round" stroke-linejoin="round"/>
<path d="M46.35 47.499L45.28 52.849" stroke="#45413C" stroke-linecap="round" stroke-linejoin="round"/>
<path d="M41 52.849V47.499" stroke="#45413C" stroke-linecap="round" stroke-linejoin="round"/>
<path d="M27.09 52.849C27.09 51.9977 27.4282 51.1812 28.0302 50.5792C28.6321 49.9772 29.4486 49.639 30.3 49.639C31.1513 49.639 31.9678 49.9772 32.5698 50.5792C33.1718 51.1812 33.51 51.9977 33.51 52.849H27.09Z" fill="#FFCC99" stroke="#45413C" stroke-linecap="round" stroke-linejoin="round"/>
<path d="M48.49 52.849C48.49 51.9977 48.8282 51.1812 49.4302 50.5792C50.0322 49.9772 50.8486 49.639 51.7 49.639C52.5513 49.639 53.3678 49.9772 53.9698 50.5792C54.5718 51.1812 54.91 51.9977 54.91 52.849H48.49Z" fill="#FFCC99" stroke="#45413C" stroke-linecap="round" stroke-linejoin="round"/>
<path d="M35.115 57.13C35.115 57.8394 35.2841 58.5198 35.5851 59.0215C35.8861 59.5231 36.2943 59.805 36.72 59.805C37.1457 59.805 37.5539 59.5231 37.8549 59.0215C38.1559 58.5198 38.325 57.8394 38.325 57.13C38.325 56.4205 38.1559 55.7401 37.8549 55.2384C37.5539 54.7368 37.1457 54.455 36.72 54.455C36.2943 54.455 35.8861 54.7368 35.5851 55.2384C35.2841 55.7401 35.115 56.4205 35.115 57.13Z" fill="white" stroke="#009FD9"/>
</svg>

<svg xmlns="http://www.w3.org/2000/svg" width="82" height="82" fill="none" viewBox="0 0 82 82"><path fill="#daedf7" stroke="#daedf7" d="M1 41a40 40 0 1 0 80 0 40 40 0 0 0-80 0Z"/><path fill="#ff6242" d="M68.821 60.34a7.49 7.49 0 0 1-7.49 7.49H20.67a7.49 7.49 0 1 1 0-14.98h40.66a7.49 7.49 0 0 1 7.49 7.49"/><path fill="#ff6242" d="M20.67 55.52h40.66a7.49 7.49 0 0 1 7.365 6.155 7.463 7.463 0 0 0-7.365-8.825H20.67a7.46 7.46 0 0 0-7.365 8.825 7.49 7.49 0 0 1 7.365-6.155"/><path stroke="#45413c" stroke-linecap="round" stroke-linejoin="round" d="M68.821 60.34a7.49 7.49 0 0 1-7.49 7.49H20.67a7.49 7.49 0 1 1 0-14.98h40.66a7.49 7.49 0 0 1 7.49 7.49"/><path fill="#87898c" d="M69.891 60.34a2.14 2.14 0 0 1-2.141 2.14h-53.5a2.14 2.14 0 0 1 0-4.28h53.5a2.14 2.14 0 0 1 2.141 2.14"/><path fill="#87898c" d="M12.109 60.34a2.14 2.14 0 0 1 2.141-2.14h53.5a2.14 2.14 0 0 1 2.141 2.14z"/><path stroke="#45413c" stroke-linecap="round" stroke-linejoin="round" d="M69.891 60.34a2.14 2.14 0 0 1-2.141 2.14h-53.5a2.14 2.14 0 0 1 0-4.28h53.5a2.14 2.14 0 0 1 2.141 2.14"/><path fill="#00b8f0" d="M51.7 59.27a3.21 3.21 0 0 1-3.21 3.21H33.51a3.21 3.21 0 0 1-3.21-3.21v-6.42h21.4z"/><path fill="#4acfff" d="m44.435 52.85-9.62 9.63h-1.3a3.207 3.207 0 0 1-3.21-3.21v-6.42z"/><path stroke="#45413c" stroke-linecap="round" stroke-linejoin="round" d="M51.7 59.27a3.21 3.21 0 0 1-3.21 3.21H33.51a3.21 3.21 0 0 1-3.21-3.21v-6.42h21.4z"/><path fill="#fff" stroke="#009fd9" d="M43.675 57.13c0 .71.17 1.39.47 1.892.301.501.71.783 1.135.783s.834-.282 1.135-.783.47-1.183.47-1.892c0-.71-.169-1.39-.47-1.892-.301-.501-.71-.783-1.135-.783s-.834.282-1.135.783c-.3.502-.47 1.182-.47 1.892Z"/><path fill="#45413c" stroke="#45413c" stroke-linecap="round" stroke-linejoin="round" d="M27.09 68.9a2.14 2.14 0 0 1-2.14 2.14h-1.07a2.14 2.14 0 0 1-2.14-2.14v-1.07h5.35zM61.33 68.9a2.14 2.14 0 0 1-2.14 2.14h-1.07a2.14 2.14 0 0 1-2.14-2.14v-1.07h5.35z"/><path fill="#45413c" d="M19.315 71.447c0 .392 2.326.767 6.466 1.044s9.757.433 15.612.433 11.471-.156 15.611-.433 6.467-.652 6.467-1.044-2.326-.767-6.467-1.044c-4.14-.277-9.756-.433-15.611-.433s-11.471.156-15.612.433c-4.14.277-6.466.652-6.466 1.044" opacity=".15"/><path fill="#fff5eb" d="M44.21 52.85a2.141 2.141 0 0 1-.72-4.157l7.879-2.814a8.58 8.58 0 0 0 5.681-8.06V22.888a2.14 2.14 0 1 1 4.28 0v14.931a12.87 12.87 0 0 1-8.522 12.092l-7.878 2.814a2.2 2.2 0 0 1-.72.125"/><path fill="#fc9" d="M54.654 43.752a8.5 8.5 0 0 1-3.285 2.127l-7.879 2.814a2.14 2.14 0 0 0 .713 4.156h.019a2.2 2.2 0 0 0 .708-.124l7.878-2.814a12.8 12.8 0 0 0 2.574-1.265 42 42 0 0 0-.728-4.894"/><path stroke="#45413c" stroke-linecap="round" stroke-linejoin="round" d="M44.21 52.85a2.141 2.141 0 0 1-.72-4.157l7.879-2.814a8.58 8.58 0 0 0 5.681-8.06V22.888a2.14 2.14 0 1 1 4.28 0v14.931a12.87 12.87 0 0 1-8.522 12.092l-7.878 2.814a2.2 2.2 0 0 1-.72.125"/><path fill="#fff5eb" stroke="#45413c" stroke-linecap="round" stroke-linejoin="round" d="M37.6 12.5C34.055 7.051 29.078 4 26.483 5.691s-1.824 7.474 1.721 12.922z"/><path fill="#ffa694" stroke="#45413c" stroke-linecap="round" stroke-linejoin="round" d="M35.467 13.885c-2.439-3.749-5.563-6.042-6.978-5.121s-.586 4.706 1.853 8.455z"/><path fill="#ffaa54" stroke="#45413c" d="M44.4 12.5c3.545-5.449 8.522-8.5 11.117-6.809s1.824 7.474-1.721 12.922z"/><path fill="#ffa694" stroke="#45413c" stroke-linecap="round" stroke-linejoin="round" d="M46.533 13.885c2.439-3.749 5.563-6.042 6.978-5.121s.586 4.706-1.853 8.455z"/><path fill="#fff5eb" d="M30.3 52.849c0-12.41 4.79-22.47 10.7-22.47s10.7 10.06 10.7 22.47z"/><path fill="#fc9" d="M41 30.379c-2.594 0-4.972 1.941-6.825 5.166a8.6 8.6 0 0 0 2.545.385h8.87c.769 0 1.533-.105 2.274-.31-1.858-3.269-4.25-5.241-6.864-5.241"/><path stroke="#45413c" stroke-linecap="round" stroke-linejoin="round" d="M30.3 52.849c0-12.41 4.79-22.47 10.7-22.47s10.7 10.06 10.7 22.47z"/><path fill="#fff5eb" d="M54.151 20.748v3.21a8.55 8.55 0 0 1-8.561 8.561h-8.87a8.557 8.557 0 0 1-8.56-8.561v-3.21a8.56 8.56 0 0 1 8.56-8.56h8.87a8.565 8.565 0 0 1 8.561 8.56"/><path fill="#fc9" d="M54.086 22.083a8.567 8.567 0 0 1-8.5 7.5H36.72a8.557 8.557 0 0 1-8.56-8.56v2.935a8.56 8.56 0 0 0 8.56 8.56h8.87a8.545 8.545 0 0 0 8.56-8.56v-2.933q.001.531-.064 1.058"/><path stroke="#45413c" stroke-linecap="round" stroke-linejoin="round" d="M54.151 20.748v3.21a8.55 8.55 0 0 1-8.561 8.561h-8.87a8.557 8.557 0 0 1-8.56-8.561v-3.21a8.56 8.56 0 0 1 8.56-8.56h8.87a8.565 8.565 0 0 1 8.561 8.56"/><path fill="#ffaa54" stroke="#45413c" d="M54.151 20.748v1.059a1 1 0 0 1-.311.011c-6.051-1.421-7.817-3.883-9.63-9.631h1.38a8.565 8.565 0 0 1 8.561 8.561Z"/><path fill="#45413c" d="M33.51 22.888a1.605 1.605 0 1 0 3.21 0 1.605 1.605 0 0 0-3.21 0M45.28 22.888a1.605 1.605 0 1 0 3.21 0 1.605 1.605 0 0 0-3.21 0"/><path fill="#ffb0ca" stroke="#45413c" stroke-linecap="round" stroke-linejoin="round" d="M39.934 25.828a.673.673 0 0 0-.475 1.148l1.066 1.066a.67.67 0 0 0 .95 0l1.066-1.066a.671.671 0 0 0-.475-1.148z"/><path fill="#fff" d="m30.3 25.03-8.56-1.07Z"/><path stroke="#45413c" stroke-linecap="round" stroke-linejoin="round" d="m30.3 25.03-8.56-1.07"/><path fill="#fff" d="m30.3 28.239-7.49 3.21Z"/><path stroke="#45413c" stroke-linecap="round" stroke-linejoin="round" d="m30.3 28.239-7.49 3.21"/><path fill="#fff" d="m51.7 25.03 8.56-1.07Z"/><path stroke="#45413c" stroke-linecap="round" stroke-linejoin="round" d="m51.7 25.03 8.56-1.07"/><path fill="#fff" d="m51.7 28.239 7.49 3.21Z"/><path stroke="#45413c" stroke-linecap="round" stroke-linejoin="round" d="m51.7 28.239 7.49 3.21M41 28.239a1.605 1.605 0 1 1-3.21 0M41 28.239a1.605 1.605 0 1 0 3.21 0M35.65 47.499l1.07 5.35M46.35 47.499l-1.07 5.35M41 52.849v-5.35"/><path fill="#fc9" stroke="#45413c" stroke-linecap="round" stroke-linejoin="round" d="M27.09 52.849a3.21 3.21 0 0 1 6.42 0zM48.49 52.849a3.21 3.21 0 0 1 6.42 0z"/><path fill="#fff" stroke="#009fd9" d="M35.115 57.13c0 .71.17 1.39.47 1.892.301.501.71.783 1.135.783s.834-.282 1.135-.783c.3-.502.47-1.183.47-1.892 0-.71-.17-1.39-.47-1.892-.301-.501-.71-.783-1.135-.783s-.834.282-1.135.783c-.3.502-.47 1.182-.47 1.892Z"/></svg>
